X:1
T:სულიკო - Suliko
T:სულიკო Suliko 
T:Varinka Tsereteli
C:Varinka Tsereteli
%%score ( 1 2 ) 3 4
L:1/8
Q:1/4=70
M:4/4
K:E
V:1 treble nm="Women"
V:2 treble 
V:3 bass nm="Men"
V:4 bass nm="Bass"
V:1
!pp! BB GA B2 c>A | B6 z2 | dddd d2 f>d | e6 z2 |: ee de (fedc) | d2 c2 B3 z | cc BB A2 B>A |1 %7
w: 1. Ot- si- sin Su hau- da ma|siin|sü- dant vae- vas va- lu ja|piin|nut- tes hüüd- sin ma _ _ _|Su- li- ko|kur- bus lii- ga ränk mul- le|
w: 2. Met- sas roo- si- õit nä- gin|seal|kas- te pi- sar hiil- gas ta|peal|kur- valt hüüd- sin ma _ _ _|Su- li- ko|kau- gel kas nii õil- mit- sed|
w: 3. Võ- sa var- jul öö- bi- ku|hääl|ü- le jõ- e kos- tis mul|sääl|kü- si- sin talt ma _ _ _|Su- li- ko|kas sääl ü- le vee lau- lad|
 G6 z2 :|2 G6 z2 || BB GA B2 c>A | B6 z2 | dddd d2 f>d | e6 z2 |: ee de (fedc) | d2 c2 B4 |1 %15
w: on|on|4. Sa- kvar- lis sa- plavs ved- zeb-|di|Ver- vna- he da- kar- gu- li-|ko|Gu- la- mos- kvni- li _ _ _|vti- ro- di|
w: Sa|Sa|||||||
w: Sa|Sa|||||||
 cc BB A2 B>A | G6 z2 :|2 cc BB !fermata!A4 || B4 !fermata!A4 | G8 |] %20
w: sa- da ha che- mo Su- li-|ko|sa- da ha che- mo|Su- li-|ko|
w: |||||
w: |||||
V:2
 GGEF G2 A>F | G6 z2 | BBBB B2 A>A | G6 z2 |: AAAA A4 | B2 A2 G3 z | AAGG F2 G>F |1 E6 z2 :|2 %8
 E6 z2 || GGEF G2 A>F | G6 z2 | BBBB B2 A>A | G6 z2 |: AAAA A4 | B2 A2 G4 |1 AAGG F2 G>F | %16
 E6 z2 :|2 AAGG F4 || G4 F4 | E8 |] %20
V:3
 E,E,E,E, E,2 E,>E, | E,6 z2 | B,,B,,B,,B,, B,,2 B,,>B,, | E,6 z2 |: A,,A,,A,,A,, A,,4 | %5
 B,,2 (C,D,) E,3 z | A,,A,, B,,B,, B,,2 B,,>B,, |1 E,6 z2 :|2 E,6 z2 || E,E,E,E, E,2 E,>E, | %10
 E,6 z2 | B,,B,,B,,B,, B,,2 B,,>B,, | E,6 z2 |: A,,A,,A,,A,, A,,4 | B,,2 (C,D,) E,4 |1 %15
 A,,A,, B,,B,, B,,2 B,,>B,, | E,6 z2 :|2 A,,A,, B,,B,, !fermata!D,4 || C,4 !fermata!D,4 | E,8 |] %20
V:4
 E,2 B,,2 E,,4- | E,,2 G,,2 B,,2 (D,C,) | B,,2 _B,,2 A,,4 | G,,2 E,2 =D,3 B,, |: A,,2 C,2 E,,4 | %5
w: mm... _ _|_ _ _ _ _||* * * ...||
 F,,2 D,2 (E,C,) B,,2 | C,2 B,,2 A,,2 F,,2 |1 E,,2 B,,2- B,,(E,=D,B,,) :|2 E,,6 z2 || %9
w: ||||
!p! E,2 B,,2 E,,4- | E,,2 G,,2 B,,E,(D,C,) | B,,2 _B,,2 A,,2 F,,2 | E,,2 E,2 =D,3 B,, |: %13
w: aa... _ _|_ _ _ _ _ _|||
 A,,2 C,2 E,4 | F,2 D,2 (E,C,) B,,2 |1 C,2 B,,2 A,,2 F,,2 | E,,2 B,,2- B,,(E,^^C,B,,) :|2 %17
w: * * ...||||
 A,,2 B,,2 !fermata!B,,4 || B,,4 !fermata!B,,4 | E,,8 |] %20
w: |||

